assets/Sleepy face/Flat/sleepy_face_flat.svg

<svg width="32" height="32" viewBox="0 0 32 32" fill="none" xmlns="http://www.w3.org/2000/svg">
<path d="M15.9989 29.9978C25.3333 29.9978 29.9978 23.7303 29.9978 15.9989C29.9978 8.26751 25.3333 2 15.9989 2C6.66443 2 2 8.26751 2 15.9989C2 23.7303 6.66443 29.9978 15.9989 29.9978Z" fill="#FFB02E"/>
<path d="M8.06927 8.98761C7.47637 9.55049 7.11781 10.2277 6.97436 10.6581C6.88703 10.9201 6.60387 11.0617 6.3419 10.9743C6.07993 10.887 5.93835 10.6039 6.02567 10.3419C6.21555 9.77226 6.65699 8.94951 7.38076 8.26239C8.11302 7.5672 9.14792 7 10.5 7C10.7762 7 11 7.22386 11 7.5C11 7.77614 10.7762 8 10.5 8C9.45211 8 8.65367 8.4328 8.06927 8.98761Z" fill="#402A32"/>
<path d="M23.9308 8.98761C24.5237 9.55049 24.8822 10.2277 25.0257 10.6581C25.113 10.9201 25.3962 11.0617 25.6581 10.9743C25.9201 10.887 26.0617 10.6039 25.9744 10.3419C25.7845 9.77226 25.343 8.94951 24.6193 8.26239C23.887 7.5672 22.8521 7 21.5 7C21.2239 7 21 7.22386 21 7.5C21 7.77614 21.2239 8 21.5 8C22.5479 8 23.3464 8.4328 23.9308 8.98761Z" fill="#402A32"/>
<path d="M6.29289 14.2929C6.68342 13.9024 7.31658 13.9024 7.70711 14.2929C7.8491 14.4349 8.65979 15 10 15C11.3402 15 12.1509 14.4349 12.2929 14.2929C12.6834 13.9024 13.3166 13.9024 13.7071 14.2929C14.0976 14.6834 14.0976 15.3166 13.7071 15.7071C13.1824 16.2318 11.8598 17 10 17C8.14021 17 6.81756 16.2318 6.29289 15.7071C5.90237 15.3166 5.90237 14.6834 6.29289 14.2929Z" fill="#402A32"/>
<path d="M18.2929 14.2929C18.6834 13.9024 19.3166 13.9024 19.7071 14.2929C19.8491 14.4349 20.6598 15 22 15C23.3402 15 24.1509 14.4349 24.2929 14.2929C24.6834 13.9024 25.3166 13.9024 25.7071 14.2929C26.0976 14.6834 26.0976 15.3166 25.7071 15.7071C25.1824 16.2318 23.8598 17 22 17C20.1402 17 18.8176 16.2318 18.2929 15.7071C17.9024 15.3166 17.9024 14.6834 18.2929 14.2929Z" fill="#402A32"/>
<path d="M20.9013 25.0064C21.0104 25.5478 20.5516 26 19.9993 26C16.9301 26 14.7168 26 12.0002 26C11.4479 26 10.9896 25.5478 11.0987 25.0064C11.5595 22.721 13.5788 21 16 21C18.4212 21 20.4405 22.721 20.9013 25.0064Z" fill="#BB1D80"/>
<path d="M17 19C17 18.4477 17.4477 18 18 18H20.5C22.433 18 24 19.567 24 21.5C24 23.433 22.433 25 20.5 25C18.567 25 17 23.433 17 21.5V19Z" fill="#5092FF"/>
</svg>

<svg xmlns="http://www.w3.org/2000/svg" width="32" height="32" fill="none"><path fill="#FFB02E" d="M15.999 29.998c9.334 0 13.999-6.268 13.999-14 0-7.73-4.665-13.998-14-13.998C6.665 2 2 8.268 2 15.999c0 7.731 4.664 13.999 13.999 13.999Z"/><path fill="#402A32" d="M8.07 8.988c-.594.562-.952 1.24-1.096 1.67a.5.5 0 1 1-.948-.316c.19-.57.631-1.392 1.355-2.08C8.113 7.567 9.148 7 10.5 7a.5.5 0 1 1 0 1c-1.048 0-1.846.433-2.43.988ZM23.93 8.988c.594.562.952 1.24 1.096 1.67a.5.5 0 1 0 .948-.316c-.19-.57-.631-1.392-1.355-2.08C23.887 7.567 22.852 7 21.5 7a.5.5 0 0 0 0 1c1.048 0 1.846.433 2.43.988ZM6.293 14.293a1 1 0 0 1 1.414 0C7.85 14.435 8.66 15 10 15c1.34 0 2.15-.565 2.293-.707a1 1 0 0 1 1.414 1.414C13.182 16.232 11.86 17 10 17c-1.86 0-3.182-.768-3.707-1.293a1 1 0 0 1 0-1.414ZM18.293 14.293a1 1 0 0 1 1.414 0c.142.142.953.707 2.293.707 1.34 0 2.15-.565 2.293-.707a1 1 0 0 1 1.414 1.414C25.182 16.232 23.86 17 22 17c-1.86 0-3.182-.768-3.707-1.293a1 1 0 0 1 0-1.414Z"/><path fill="#BB1D80" d="M20.901 25.006c.11.542-.35.994-.902.994H12c-.552 0-1.01-.452-.901-.994a5.002 5.002 0 0 1 9.802 0Z"/><path fill="#5092FF" d="M17 19a1 1 0 0 1 1-1h2.5a3.5 3.5 0 1 1-3.5 3.5V19Z"/></svg>
